X:2830
T:Julia Delany
M:4/4
O:Ireland
R:Reel
Z:Richard Robinson 
%%TUNEURL: http://www.leeds.ac.uk/music/Info/RRTuneBk/gettune/0000082b.html
%%ID:0000082b
K:D dorian
z2|\
dcAG F2FD|E2{FE}DE FED2|dcAG F2DE|Fdd^c defe|\
dcAG F2FD|E2{FE}DE FED2|
dcAG F2DE|Fdd^c d2::\
de|\
f2de fagf|ecgc acgc|
fede fagf|edcA d2de|\
f2de fagf|ecgc acgc|fedf edcB|Add^c d2:|
